X:8
T:score103
L:1/8
Q:1/4=96
M:2/4
I:linebreak $
K:Dmin
 d^c | (3=ccc =B_B | (3:2:2A2 A ^G=G | (3F/G/F/E/F/ GF | E z d^c |$ (3=ccc =B_B | (3AAA GF | %7
 (3E/F/E/D/E/ FE | D2 z2 |] %9
